libs/ui/packages/crypto-icons/src/svg/STAK.svg

<svg width="24" height="24" viewBox="0 0 24 24" fill="none">
<path d="M12.4627 3.50925H12.471C14.025 5.04675 15.5617 6.59925 17.1067 8.145H20.9617L12.2842 20.4397C12.1402 18.996 12.0292 17.5522 11.9017 16.1092C13.1587 14.301 14.4495 12.5092 15.7065 10.7092L12.8362 7.848C12.8337 7.50958 12.8053 7.17186 12.7515 6.83775C12.6577 5.73375 12.5985 4.61325 12.4627 3.50925ZM3.04649 15.8542C5.95874 11.7622 8.84549 7.653 11.7495 3.552L12.1147 7.899C10.8495 9.70725 9.57599 11.4907 8.31074 13.2907C9.25349 14.2327 10.1955 15.192 11.1555 16.1347C11.283 17.5777 11.3932 19.0387 11.538 20.4907H11.52L6.90974 15.8715C5.61974 15.8887 4.32899 15.8632 3.03824 15.8887V15.8542H3.04649Z" fill="#F2941B"/>
</svg>

<svg width="24" height="24" viewBox="0 0 24 24" fill="none"><path fill="#f2941b" d="M12.463 3.51h.008c1.554 1.537 3.09 3.09 4.636 4.635h3.855L12.284 20.44c-.144-1.444-.255-2.888-.382-4.33 1.257-1.809 2.548-3.6 3.805-5.4l-2.87-2.862a7 7 0 0 0-.085-1.01c-.094-1.104-.154-2.225-.29-3.329M3.046 15.853c2.913-4.092 5.8-8.201 8.704-12.302l.365 4.347C10.85 9.706 9.576 11.49 8.311 13.29c.942.942 1.884 1.901 2.845 2.844.127 1.443.237 2.904.382 4.356h-.018l-4.61-4.62c-1.29.018-2.581-.008-3.872.018v-.035z"/></svg>
